app/images/icons/social-vk.svg

<svg xmlns="http://www.w3.org/2000/svg" viewBox="0 0 20 20"><path fill="#FFF" d="M18.8 2.2v16.2H2.6V2.2h16.2zM14.6 12c0-.6-.2-1.1-.5-1.4-.3-.4-.8-.6-1.3-.7.4-.2.7-.4.9-.7.2-.4.3-.8.3-1.3 0-.4-.1-.7-.2-1-.2-.3-.4-.5-.7-.7-.3-.1-.6-.2-1-.2-.3 0-.8-.1-1.5-.1H7.5v8.8h3.6c.6 0 1.1-.1 1.5-.2.4-.1.8-.3 1.1-.6.3-.2.5-.5.7-.8.1-.3.2-.7.2-1.1zm-2.8-3.6c0-.1 0-.3-.1-.4-.1-.1-.2-.3-.3-.3-.1-.1-.3-.1-.5-.1H9.8v1.9h1c.2 0 .3 0 .5-.1s.3-.2.4-.3c0-.4.1-.5.1-.7zm.5 3.6c0-.3-.1-.5-.2-.6-.1-.2-.2-.4-.5-.4-.1-.1-.3-.1-.6-.1H9.8v2.2h1.3c.2 0 .4-.1.7-.2.2-.1.3-.2.4-.4.1-.1.1-.3.1-.5z"/><path fill="currentColor" d="M17.9 1.3v16.2H1.7V1.3h16.2zm-4.2 9.8c0-.6-.2-1.1-.5-1.4-.3-.4-.8-.6-1.3-.7.4-.2.7-.4.9-.7.2-.3.3-.7.3-1.1 0-.4-.1-.7-.2-1-.2-.3-.4-.5-.7-.7-.3-.2-.6-.3-.9-.3-.3-.1-.8-.2-1.5-.2H6.7v8.8h3.6c.6 0 1.1-.1 1.5-.2.4-.1.8-.3 1.1-.6.3-.2.5-.5.7-.8.1-.3.1-.6.1-1.1zm-2.8-3.6c0-.1 0-.3-.1-.4-.1-.1-.2-.3-.3-.3-.1-.1-.3-.1-.5-.1H8.9v1.9H10c.2 0 .3 0 .5-.1s.3-.2.4-.3v-.7zm.6 3.6c0-.3-.1-.5-.2-.6-.1-.2-.3-.3-.5-.3-.1-.2-.3-.2-.5-.2H8.9v2.2h1.3c.2 0 .4-.1.7-.2.2-.1.3-.2.4-.4.1-.1.2-.3.2-.5z"/></svg>

<?xml version="1.0" encoding="utf-8"?>
<!-- Generator: Adobe Illustrator 17.1.0, SVG Export Plug-In . SVG Version: 6.00 Build 0)  -->
<!DOCTYPE svg PUBLIC "-//W3C//DTD SVG 1.1//EN" "http://www.w3.org/Graphics/SVG/1.1/DTD/svg11.dtd">
<svg version="1.1" id="Слой_1" xmlns="http://www.w3.org/2000/svg" xmlns:xlink="http://www.w3.org/1999/xlink" x="0px" y="0px"
	 viewBox="0 0 20 20" enable-background="new 0 0 20 20" xml:space="preserve">
<path fill="#FFFFFF" d="M18.8,2.2v16.2H2.6l0-16.2L18.8,2.2z M14.6,12c0-0.6-0.2-1.1-0.5-1.4c-0.3-0.4-0.8-0.6-1.3-0.7v0
	c0.4-0.2,0.7-0.4,0.9-0.7C13.9,8.8,14,8.4,14,7.9c0-0.4-0.1-0.7-0.2-1c-0.2-0.3-0.4-0.5-0.7-0.7C12.8,6.1,12.5,6,12.1,6
	c-0.3,0-0.8-0.1-1.5-0.1H7.5v8.8h3.6c0.6,0,1.1-0.1,1.5-0.2c0.4-0.1,0.8-0.3,1.1-0.6c0.3-0.2,0.5-0.5,0.7-0.8
	C14.5,12.8,14.6,12.4,14.6,12L14.6,12z M11.8,8.4c0-0.1,0-0.3-0.1-0.4c-0.1-0.1-0.2-0.3-0.3-0.3c-0.1-0.1-0.3-0.1-0.5-0.1
	c-0.2,0-0.5,0-0.9,0H9.8v1.9H10c0.4,0,0.6,0,0.8,0c0.2,0,0.3,0,0.5-0.1c0.2-0.1,0.3-0.2,0.4-0.3C11.7,8.7,11.8,8.6,11.8,8.4
	L11.8,8.4z M12.3,12c0-0.3-0.1-0.5-0.2-0.6C12,11.2,11.9,11,11.6,11c-0.1-0.1-0.3-0.1-0.6-0.1c-0.2,0-0.5,0-0.9,0H9.8v2.2h0.1
	c0.6,0,1,0,1.2,0c0.2,0,0.4-0.1,0.7-0.2c0.2-0.1,0.3-0.2,0.4-0.4C12.3,12.4,12.3,12.2,12.3,12z"/>
<path fill="currentColor" d="M17.9,1.3v16.2H1.7l0-16.2L17.9,1.3z M13.7,11.1c0-0.6-0.2-1.1-0.5-1.4c-0.3-0.4-0.8-0.6-1.3-0.7v0
	c0.4-0.2,0.7-0.4,0.9-0.7c0.2-0.3,0.3-0.7,0.3-1.1c0-0.4-0.1-0.7-0.2-1c-0.2-0.3-0.4-0.5-0.7-0.7c-0.3-0.2-0.6-0.3-0.9-0.3
	C11,5.1,10.5,5,9.8,5H6.7v8.8h3.6c0.6,0,1.1-0.1,1.5-0.2c0.4-0.1,0.8-0.3,1.1-0.6c0.3-0.2,0.5-0.5,0.7-0.8
	C13.7,11.9,13.7,11.6,13.7,11.1L13.7,11.1z M10.9,7.5c0-0.1,0-0.3-0.1-0.4c-0.1-0.1-0.2-0.3-0.3-0.3c-0.1-0.1-0.3-0.1-0.5-0.1
	c-0.2,0-0.5,0-0.9,0H8.9v1.9h0.3c0.4,0,0.6,0,0.8,0c0.2,0,0.3,0,0.5-0.1c0.2-0.1,0.3-0.2,0.4-0.3C10.9,7.9,10.9,7.7,10.9,7.5
	L10.9,7.5z M11.5,11.1c0-0.3-0.1-0.5-0.2-0.6c-0.1-0.2-0.3-0.3-0.5-0.3C10.7,10,10.5,10,10.3,10c-0.2,0-0.5,0-0.9,0H8.9v2.2H9
	c0.6,0,1,0,1.2,0c0.2,0,0.4-0.1,0.7-0.2c0.2-0.1,0.3-0.2,0.4-0.4C11.4,11.5,11.5,11.3,11.5,11.1z"/>
</svg>
